X: 11275
T: Dwyer's
R: hornpipe
M: 4/4
K: Gmajor
BGGF GBAG|FGEF D2 dc|BGGF GA(3Bcd|(3efg fa gedc|
BGGF GBAG|(3FGA EF D2 dc|(3BcB GB (3ABA FA|1 G2 GF G2dc:|2 G2 GF G2 ga||
b2 ba bage|a2 ag agfd|(3efg fa gbag|f2 d2 d2 ga|
b2 ba bage|a2 ag agfd|(3efg fa gedc|1 B2 G2 G2 ga:|2 B2 G2 G2 ge||
dB (3BBB GB (3BBB|dB (3BBB GBdB|cA (3AAA FA (3AAA|cA (3AAA FADA|
BGBd eceg|fdfa gfga|(3bag af gedc|1 B2 G2 G2 ge:|2 B2 G2 G4||

